X:10334
T:Mariannes polska (Jostein S\o{}rb\o{}en)
M:3/4
L:1/8
C:Hallingdal Kraftlag "Til Verket"
K:C
G|cG/E/ C2 C/D/C/B,/|A,C/E/ A2A2|G>d ~BG .AB|\
c2 c/d/c/B/ cG|cG/E/ C2 C/D/C/B,/|
A,C/E/ A2A2|G>d ~BG .AB|c2 c/d/c/B/ c:|\
|:e|g>e'c'2 c'e|f>~d A2A2|G>d' ~bg .fB|
c2 c/d/c/B/ ce|g>e'c'2 c'e|f>~d A2A2|G>d' ~bg .fB|\
c2 c/d/c/B/ c:||:.d>~B GB .cd|c2 e/d/c/B/ c>B|
.d>~B GB .cd|c2 e/d/c/B/ c>B|.d>~B GB .cd|\
{d/}e>d .cB c~B|.A>f ~dc BA|GB/d/ c4:|
